X: 36
T: Tell Toddle
R: reel
M: C|
L: 1/8
Z: 2012 John Chambers <jc:trillian.mit.edu>
B: J. Anderson "Budget of Strathspeys, Reels and Country Dances" (Early 1800s) p.3 #3
F: http://imslp.org/wiki/Anderson%27s_Budget_of_Strathspeys,_Reels_and_Country_Dances_(Various)
K: D
|:\
d/d/d (fd) g2(fe) | ddfd eacA | Ddfd gefd | egfa e2(cA) :|
(e/f/g) (dB) dgdB | (gf)gB (Ae)cA | g2(dB) gefd | egfa e2(cA) |
(e/f/g) (dB) BgdB | g2(dB) AacA | g2(dB) gefd | egfa eacA |]

%%sep 2 1 500
%%sep 1 1 500

